X:41
T:Mihiwaka
M:c
C:words  Gregor Campbell;  music Lindsey Shields
L:1/4
Q: 150
K:C 
c c c c | G G  A A-|A4| z2 G G  |G G  F F | E4|z4 |
W:I   loved a  mai  -   den  in  the port,                        and  I       mar-ried her in       March   
c c c c | G G  A A-|A4| z3 G  |G G  F F | E4|
W:Her clothes were of    the chea-per sort,                                     and        ne-ver knew much    starch.
 z2 A A| B3 c |(B A) A2-|A2 z B|B3 B |d2 D2|E4 |
W:She was    sweet     and         ge   -    ntle,                     her      smile   made     my hearth   grow
z2 G G |G D D E|EE3|z2DD|EGGA|G4| 
W:On  the     slopes of   Mi- hi    -    wa - ka                   where the        flax and tus-sock    grow.
z2 B2|B2 (c B)|A4 |z2 B2|B2 (cB)| A3 A|B c (d c)|B2 A2|
W:Where trees were       cut,         where    pas- tures      made,  where  stone was laid         on stone.
